X: 7
T: Kilnamona
R: barndance
M: 4/4
L: 1/8
K: Gmaj
D2 GABc |:dGBd GABc | d2 c2 A2- AB | c2 A2 e2- ec | e2 d2 BABc |
d2 Bd GABc | d2 c2 A2- AB | c2 A2 e2 d2 |[1 G4 GABc :|[2 G4- Gdga ||
|: b2 gb bagb | a2 ab agef | gage d2 Bd | e2 ae a2 ga |
b2 bc’ bc’gb | aAab agef | gage d2 Bd |[1 eAfA gdga :|[2 eAfA gfge |]


Tune 163	Setting 12792

